src/assets/icons/shapes,fancy,outline-octagon.svg

<svg width="48" height="48" viewBox="0 0 48 48" fill="none" xmlns="http://www.w3.org/2000/svg">
<path d="M23.0433 6.01987C23.4412 5.85504 23.664 5.76385 23.836 5.70745C23.9126 5.68232 23.956 5.67215 23.9786 5.66787C23.9893 5.66584 23.9951 5.66518 23.9973 5.66496L24 5.66478L24.0027 5.66496C24.0049 5.66518 24.0107 5.66584 24.0214 5.66787C24.044 5.67215 24.0874 5.68232 24.164 5.70745C24.336 5.76385 24.5588 5.85504 24.9567 6.01987L36.0374 10.6096C36.4353 10.7745 36.6573 10.8675 36.8188 10.9492C36.8908 10.9857 36.9286 11.0091 36.9476 11.0221C36.9566 11.0282 36.9612 11.0319 36.9629 11.0333L36.965 11.035L36.9667 11.0371C36.9681 11.0388 36.9718 11.0434 36.9779 11.0524C36.9909 11.0714 37.0143 11.1092 37.0508 11.1812C37.1325 11.3427 37.2255 11.5647 37.3904 11.9626L41.9801 23.0433C42.145 23.4412 42.2362 23.664 42.2926 23.836C42.3177 23.9126 42.3279 23.956 42.3321 23.9786C42.3342 23.9893 42.3348 23.9951 42.335 23.9973L42.3352 24L42.335 24.0027C42.3348 24.0049 42.3342 24.0107 42.3321 24.0214C42.3279 24.044 42.3177 24.0874 42.2926 24.164C42.2362 24.336 42.145 24.5588 41.9801 24.9567L37.3904 36.0374C37.2255 36.4353 37.1325 36.6573 37.0508 36.8188C37.0143 36.8908 36.9909 36.9286 36.9779 36.9476C36.9718 36.9566 36.9681 36.9612 36.9667 36.9629L36.965 36.965L36.9629 36.9667C36.9612 36.9681 36.9566 36.9718 36.9476 36.9779C36.9286 36.9909 36.8908 37.0143 36.8188 37.0508C36.6573 37.1325 36.4353 37.2255 36.0374 37.3904L24.9567 41.9801C24.5588 42.145 24.336 42.2362 24.164 42.2926C24.0874 42.3177 24.044 42.3279 24.0214 42.3321C24.0107 42.3342 24.0049 42.3348 24.0027 42.335L24 42.3352L23.9973 42.335C23.9951 42.3348 23.9893 42.3342 23.9786 42.3321C23.956 42.3279 23.9126 42.3177 23.836 42.2926C23.664 42.2362 23.4412 42.145 23.0433 41.9801L11.9626 37.3904C11.5647 37.2255 11.3427 37.1325 11.1812 37.0508C11.1092 37.0143 11.0714 36.9909 11.0524 36.9779C11.0434 36.9718 11.0388 36.9681 11.0371 36.9667L11.035 36.965L11.0333 36.9629C11.0325 36.962 11.0309 36.9601 11.0286 36.9569C11.0269 36.9546 11.0247 36.9515 11.0221 36.9476C11.0091 36.9286 10.9857 36.8908 10.9492 36.8188C10.8675 36.6573 10.7745 36.4353 10.6096 36.0374L6.01987 24.9567C5.85504 24.5588 5.76385 24.336 5.70745 24.164C5.68232 24.0874 5.67215 24.044 5.66787 24.0214C5.66584 24.0107 5.66518 24.0049 5.66496 24.0027L5.66478 24L5.66496 23.9973C5.66518 23.9951 5.66584 23.9893 5.66787 23.9786C5.67215 23.956 5.68232 23.9126 5.70745 23.836C5.76385 23.664 5.85504 23.4412 6.01987 23.0433L10.6096 11.9626C10.7745 11.5647 10.8675 11.3427 10.9492 11.1812C10.9857 11.1092 11.0091 11.0714 11.0221 11.0524C11.0282 11.0434 11.0319 11.0388 11.0333 11.0371L11.035 11.035L9.97438 9.97438L11.035 11.035L11.0371 11.0333C11.0388 11.0319 11.0434 11.0282 11.0524 11.0221C11.0714 11.0091 11.1092 10.9857 11.1812 10.9492C11.3427 10.8675 11.5647 10.7745 11.9626 10.6096L23.0433 6.01987Z" stroke="black" stroke-width="3"/>
</svg>

<svg xmlns="http://www.w3.org/2000/svg" width="48" height="48" fill="none" viewBox="0 0 48 48">
  <path stroke="#000" stroke-width="3" d="M24.957 6.02l11.08 4.59c.398.165.62.258.782.34a1.182 1.182 0 01.144.083l.002.002.002.002a1.182 1.182 0 01.084.144c.082.162.175.384.34.782l4.59 11.08c.164.398.255.621.312.793a1.167 1.167 0 01.042.161v.006a.132.132 0 01-.003.018 1.167 1.167 0 01-.04.143c-.056.172-.147.395-.312.793l-4.59 11.08c-.165.398-.258.62-.34.782a1.182 1.182 0 01-.083.144l-.002.002-.002.002a1.182 1.182 0 01-.144.084c-.162.082-.384.175-.782.34l-11.08 4.59c-.398.164-.621.255-.793.312a1.167 1.167 0 01-.161.042h-.006a.132.132 0 01-.018-.003 1.167 1.167 0 01-.143-.04 12.734 12.734 0 01-.793-.312l-11.08-4.59c-.398-.165-.62-.258-.782-.34a1.182 1.182 0 01-.144-.083l-.002-.002-.002-.002a1.182 1.182 0 01-.084-.144 12.852 12.852 0 01-.34-.782l-4.59-11.08c-.164-.398-.255-.621-.312-.793a1.184 1.184 0 01-.042-.161v-.006c0-.002 0-.008.003-.018.004-.023.014-.066.04-.143.056-.172.147-.395.312-.793l4.59-11.08c.165-.398.258-.62.34-.782a1.182 1.182 0 01.083-.144l.002-.002.002-.002a1.182 1.182 0 01.144-.084c.162-.082.384-.175.782-.34l11.08-4.59c.398-.164.621-.255.793-.312a1.184 1.184 0 01.161-.042h.006a1.184 1.184 0 01.161.042c.172.057.395.148.793.313z"/>
</svg>
